X:1
T:Flowers of Edingurgh
M:C|
R:reel
L:1/8
K:G
GE | D2DE G2GA | BABd cBAG | FGEF DEFG | AGcG E2 |
GE | D2DE G2GA | BABd efge | dcBA GFGA | B2G2 G2 :|
|: (3(def) | g2g2 gbag | f2fe fagf | edef gfed | B2e2 e2ge |
dBGB d3d | edef g2fe | dcBA GFGA | B2G2 G2 :|
